X: 1
P: Fear a'Bhata
R: Waltz
M: 3/4
K: Em
L: 1/4
"Em"E2 F|"G"G3|"G"G2 d|"G"B>A G|"D"F3|"D"A3|"Bm"B2 E|"Em"E3|"Em"E2 G|"Em"F2 E|"Bm"D3|"Bm"B,3| "Bm"B,2 D|
"C"E3|"C"E2 E|"D"D2 E|"Em"G3|"A7"A2 B|"G"e<d-d2|"G"B3|"D"A2 G|"Bm"G2 F|"Em"E3|E2|]

